!!!!SEGMENT: pl-sa--l-1643--084_anonim--et-exultavit-spiritus-meus.krn
!!!cenid: 16xx:1442
!!!COM: Anonim
!!!COM-rismID: pe30004985
!!!CDT:
!!!CNT:
!!!OTL: Et exultavit spiritus meus
!!!PDT:
!!!AGN: Sacred
!!!SMS-siglum: PL-SA
!!!SMS-shelfmark: L 1643
!!!SMS-shelfwork: 084 W
!!!SMS-variant:
!!!SMS-altvar:
!!!NIFC-rismSourceID: 1001064618
!!!NIFC-rismChildID: 1001064618
!!!NIFC-islandoraID:
!!!URL-pdf-islandora:
!!!URL-scan:
!!!ONB-nifc: UWAGA: 8 ksiąg. Primi chori: 1mus Cantus (x), C 2dus (133-136), C 3tius (x), Bassus (40-43); Secondi chori: Primus Cantus (x), C 2dus (x), Altus (39-41), Bassus (39-42). UWAGA: Nie dodawać pustych linii, chyba że w rękopisie pojawiają się dodatkowe oznaczenia dotyczące pełnej obsady (a 4, a 8 itp.)
!!!AIN: 1 alto 3 empty
!!!key:
**kern	**text	**kern	**text	**kern	**text	**kern	**text
*group2	*	*group2	*	*group1	*	*group1	*
*part4	*part4	*part3	*part3	*part2	*part2	*part1	*part1
*staff4	*staff4	*staff3	*staff3	*staff2	*staff2	*staff1	*staff1
*Iempty	*	*Ialto	*	*Iempty	*	*Iempty	*
*I"Baſsus 2di Chori	*	*I"Altus secundi Chori	*	*I"Bassus Primi Chori.	*	*I"Cantus 2dus Primi Chori	*
*I'[Coro 2 B]	*	*I'[Coro 2 A]	*	*I'[Coro 1 B]	*	*I'[Coro 1 C 2]	*
*clefC4	*	*clefC3	*	*clefC4	*	*clefC1	*
*k[]	*	*k[]	*	*k[]	*	*k[]	*
*C:	*	*C:	*	*C:	*	*C:	*
*M3/2	*	*M3/2	*	*M3/2	*	*M3/2	*
=1-	=1-	=1-	=1-	=1-	=1-	=1-	=1-
00.r	.	00.r	.	00.r	.	00.r	.
=2-	=2-	=2-	=2-	=2-	=2-	=2-	=2-
1C	Et	1c	Et	1C	Et	1g	Et
1F/	e-	1A/	e-	1F/	e-	1a\	e-
=3-	=3-	=3-	=3-	=3-	=3-	=3-	=3-
1E	-xul-	1c	-xul-	1E	-xul-	1g	-xul-
=4-	=4-	=4-	=4-	=4-	=4-	=4-	=4-
0F	-ta-	1.A	-ta-	0F	-ta-	0cc	-ta-
=5-	=5-	=5-	=5-	=5-	=5-	=5-	=5-
.	.	2B/	.	.	.	.	.
1C	-uit	1c	-vit	1C	-uit	1cc	-uit
=6-	=6-	=6-	=6-	=6-	=6-	=6-	=6-
00.r	.	00.r	.	00.r	.	00.r	.
=7-	=7-	=7-	=7-	=7-	=7-	=7-	=7-
00.r	.	1.c	Spi-	00.r	.	00.r	.
=8-	=8-	=8-	=8-	=8-	=8-	=8-	=8-
.	.	2G/	-ri-	.	.	.	.
.	.	1A	-tus	.	.	.	.
=9-	=9-	=9-	=9-	=9-	=9-	=9-	=9-
.	.	0G	me-	.	.	.	.
=10-	=10-	=10-	=10-	=10-	=10-	=10-	=10-
.	.	1c	-us	.	.	.	.
=11-	=11-	=11-	=11-	=11-	=11-	=11-	=11-
1.c	Spi-	1.e	spi-	1.c	Spi-	1.cc	spi-
=12-	=12-	=12-	=12-	=12-	=12-	=12-	=12-
2G/	-ri-	2d\	-ri-	2G/	-ri-	2b\	-ri-
1A,>	-tus	1c	-tus	1A	-tus	1cc	-tus
=13-	=13-	=13-	=13-	=13-	=13-	=13-	=13-
1.G	Spi-	1.B	spi-	1.G	spi-	1.dd	spi-
*	*	*	*	*custos:G	*	*	*
!	!	!	!	!LO:LB:g=original	!	!	!
=14-	=14-	=14-	=14-	=14-	=14-	=14-	=14-
2G/	-ri-	2B/	-ri-	2G/	-ri-	2dd\	-ri-
1G,>	-tus	1d	-tus	1G	-tus	1dd	-tus
=15-	=15-	=15-	=15-	=15-	=15-	=15-	=15-
1.c	Spi-	1.c	spi-	1.c	spi-	1.ee	spi-
=16-	=16-	=16-	=16-	=16-	=16-	=16-	=16-
2B\	-ri-	2d\	-ri-	2B\	-ri-	2dd\	-ri-
1A	-tus	2e\	-tus	1A	-tus	1cc	-tus
.	.	2f\	.	.	.	.	.
=17-	=17-	=17-	=17-	=17-	=17-	=17-	=17-
0G	me-	0g	me-	0G	me-	0dd	me-
=18-	=18-	=18-	=18-	=18-	=18-	=18-	=18-
*	*	*custos:g	*	*	*	*	*
!	!	!LO:LB:g=original	!	!	!	!	!
1C	-us	1g	-us	1C	-us	1cc	-us
=19-	=19-	=19-	=19-	=19-	=19-	=19-	=19-
0.r	.	0.r	.	0.r	.	0.r	.
=20-	=20-	=20-	=20-	=20-	=20-	=20-	=20-
1F	in	1c	in	1F	in	1a	in
1F/	De-	1c\	de-	1F/	de-	1cc\	de-
=21-	=21-	=21-	=21-	=21-	=21-	=21-	=21-
1C	-o	1e	-o	1C	-o	1cc	-o
=22-	=22-	=22-	=22-	=22-	=22-	=22-	=22-
0.r	.	0.r	.	0.r	.	0.r	.
*custos:C	*	*	*	*	*	*	*
!LO:PB:g=original	!	!	!	!	!	!	!
=23-	=23-	=23-	=23-	=23-	=23-	=23-	=23-
1C	in	1c	in	1C	in	1cc	in
*	*	*	*	*	*	*custos:d	*
!	!	!	!	!	!	!LO:LB:g=original	!
1G/	De-	1B/	de-	1G/	de-	1dd\	de-
=24-	=24-	=24-	=24-	=24-	=24-	=24-	=24-
1C	-o	1c	-o	1C	-o	1ee	-o
=25-	=25-	=25-	=25-	=25-	=25-	=25-	=25-
0.r	.	0.r	.	0.r	.	0.r	.
=26-	=26-	=26-	=26-	=26-	=26-	=26-	=26-
1C	in	1c	in	1C	in	1ee	in
1F/	De-	1A/	de-	1F/	de-	1ff\	de-
=27-	=27-	=27-	=27-	=27-	=27-	=27-	=27-
!	!	!LO:TX:t=P:problem=kreska pseudotaktowa	!	!	!	!	!
1C	-o	1c	-o	1C	-o	1ee	-o
=28-	=28-	=28-	=28-	=28-	=28-	=28-	=28-
00.r	.	1.c	sa-	0.r	.	00.r	.
=29-	=29-	=29-	=29-	=29-	=29-	=29-	=29-
.	.	2d\	.	.	.	.	.
.	.	2e\	.	.	.	.	.
.	.	2f\	-lu-	.	.	.	.
=30-	=30-	=30-	=30-	=30-	=30-	=30-	=30-
.	.	0g	-ta-	00.r	.	.	.
=31-	=31-	=31-	=31-	=31-	=31-	=31-	=31-
.	.	1c	-ri	.	.	.	.
=32-	=32-	=32-	=32-	=32-	=32-	=32-	=32-
0.r	.	0d	me-	.	.	0.r	.
=33-	=33-	=33-	=33-	=33-	=33-	=33-	=33-
.	.	1G	-o	.	.	.	.
=34-	=34-	=34-	=34-	=34-	=34-	=34-	=34-
0c	ſa-	00.r	.	0c	Sa-	0ee	sa-
=35-	=35-	=35-	=35-	=35-	=35-	=35-	=35-
1c	-lu-	.	.	1c	-lu-	1ee	-lu-
=36-	=36-	=36-	=36-	=36-	=36-	=36-	=36-
0B	-ta-	.	.	0B	-ta-	0dd	-ta-
=37-	=37-	=37-	=37-	=37-	=37-	=37-	=37-
1c	-ri	.	.	1c	-ri	1ee	-ri
*	*	*	*	*custos:A	*	*	*
!	!	!	!	!LO:PB:g=original	!	!	!
=38-	=38-	=38-	=38-	=38-	=38-	=38-	=38-
0A	me-	0.r	.	0A	me-	0cc	me-
=39-	=39-	=39-	=39-	=39-	=39-	=39-	=39-
1G	-o	.	.	1G	-o	1b	-o,
=40-	=40-	=40-	=40-	=40-	=40-	=40-	=40-
0.r	.	0c	sa-	0.r	.	0.r	.
=41-	=41-	=41-	=41-	=41-	=41-	=41-	=41-
.	.	1B	-lu-	.	.	.	.
*	*	*custos:c	*	*	*	*	*
!	!	!LO:LB:g=original	!	!	!	!	!
=42-	=42-	=42-	=42-	=42-	=42-	=42-	=42-
0c	ſa-	0c	-ta-	0c	Sa-	0cc	sa-
=43-	=43-	=43-	=43-	=43-	=43-	=43-	=43-
1B	-lu-	1G	-ri	1B	-lu-	1dd	-lu-
=44-	=44-	=44-	=44-	=44-	=44-	=44-	=44-
0c	-ta-	0c	sa-	0c	-ta-	0ee	-ta-
=45-	=45-	=45-	=45-	=45-	=45-	=45-	=45-
1G	-ri	1B	-lu-	1G	-ri	1dd	-ri
=46-	=46-	=46-	=46-	=46-	=46-	=46-	=46-
1C	sa-	0c	-ta-	1C	Sa-	0cc	sa-
1C/	-lu-	.	.	1C/	-lu-	.	.
=47-	=47-	=47-	=47-	=47-	=47-	=47-	=47-
1G	-ta-	1G	-ri	1G	-ta-	1dd	-lu-
=48-	=48-	=48-	=48-	=48-	=48-	=48-	=48-
1E	-ri	0.c	me-	1E	-ri	1ee	-ta-
0C/	me-	.	.	0C/	me-	1ee\	-ri
=49-	=49-	=49-	=49-	=49-	=49-	=49-	=49-
.	.	.	.	.	.	1ee	me-
=50-	=50-	=50-	=50-	=50-	=50-	=50-	=50-
0G;;	-o	0G;>	-o	0G;>	-o;	0dd;<	-o;
*	*	*	*	*	*	*custos:g	*
!LO:LB:g=original	!	!	!	!	!	!LO:LB:g=original	!
=51-	=51-	=51-	=51-	=51-	=51-	=51-	=51-
!LO:TX:t=P:problem=brak pauzy	!	!	!	!LO:TX:t=P:problem=brak pauzy	!	!	!
1r	.	1r	.	1r	.	1r	.
=52||-	=52||-	=52||-	=52||-	=52||-	=52||-	=52||-	=52||-
*M2/2	*	*M2/2	*	*M2/2	*	*M2/2	*
*met(C|)	*	*met(C|)	*	*met(C|)	*	*met(C|)	*
4G/	Qui-	4.G/	Qui-	4G/	Qui-	4g/	Qui-
8E/L	-a	.	.	8E/L	-a	4g/	-a
8F/J	.	8A/	-a	8F/J	.	.	.
4G/	fe-	4B/	fe-	4G/	fe-	4e/	fe-
4C/,>	-cit	4c/	-cit	4C/	-cit	4e/	-cit
=53-	=53-	=53-	=53-	=53-	=53-	=53-	=53-
4F/	qui-	4.A/	qui-	4F/	qui-	4r	.
*	*	*	*	*custos:F	*	*	*
!	!	!	!	!LO:LB:g=original	!	!	!
8F/L	-a	.	.	8F/L	-a	8a\	qui-
8G/J	.	8B/	-a	8G/J	.	8a\	-a
4A/	fe-	4c#X\	fe-	4A/	fe-	4e/	fe-
4D,>/	-cit	4d\	-cit	4D/	-cit	4f#X/	-cit
=54-	=54-	=54-	=54-	=54-	=54-	=54-	=54-
4E/	qui-	4cny/	qui-	4E/	qui-	4r	.
8E/L	-a	4A/	-a	8E/L	-a	8g\	qui-
8F/J	.	.	.	8F/J	.	8a\	-a
4G/	fe-	4B/	fe-	4G/	fe-	4b\	fe-
4C/,>	-cit	4c/	-cit	4C/	-cit	4cc\	-cit
=55-	=55-	=55-	=55-	=55-	=55-	=55-	=55-
4r	.	1r	.	4r	.	4r	.
*	*	*	*	*	*ij	*	*
4c\	qui-	.	.	4c\	qui-	4g/	qui-
4A/	-a	.	.	4A/	-a	4a\	-a
4F/,>	fe-	.	.	4F/	fe-	4a\	fe-
=56-	=56-	=56-	=56-	=56-	=56-	=56-	=56-
!	!	!	!	!	!	!LO:TX:t=P:problem=4g i 4fny słabo widoczne	!
4c\	-cit	4r	.	4c\	-cit	4g/	-cit
4C/	qui-	4c/	qui-	4C/	qui-	4fny/	qui-
4F/	-a	4A/	-a	4F/	-a	4f/	-a
!	!	!LO:PB:g=original	!	!	!	!	!
4F/	fe-	4F/	fe-	4F/	fe-	4f/	fe-
=57-	=57-	=57-	=57-	=57-	=57-	=57-	=57-
4C/	-cit	2c/	-cit	4C/	-cit	4e/	-cit
*	*	*	*	*	*Xij	*	*
4c\	mi-	.	.	4c\	mi-	4g/	mi-
4A/	-hi	4r	.	4A/	-chi	4a\	-hi
4F,>/	m[a]-	4A/	mi-	4F/	ma-	4a\	ma-
*custos:C	*	*	*	*	*	*	*
!LO:LB:g=original	!	!	!	!	!	!	!
=58-	=58-	=58-	=58-	=58-	=58-	=58-	=58-
8C/L	-gna	4c/	-chi	8C/L	-gna	1g	-gna
8D/	.	.	.	8D/	.	.	.
8E/	.	4c/	ma-	8E/	.	.	.
8F/J	.	.	.	8F/J	.	.	.
2G/	.	2d\	-gna	2G/	.	.	.
*	*	*	*	*	*	*custos:a	*
!	!	!	!	!	!	!LO:PB:g=original	!
=59-	=59-	=59-	=59-	=59-	=59-	=59-	=59-
4r	.	4r	.	4r	.	4r	.
*	*	*	*	*custos:F	*	*	*
!	!	!	!	!LO:LB:g=original	!	!	!
4F/	mi-	4c/	mi-	4F/	mi-	4a\	mi-
4E/	-hi	4c/	-chi	4E/	-chi	4g\	-hi
4F,>/	ma-	4c/	ma-	4F/	ma-	4a\	ma-
=60-	=60-	=60-	=60-	=60-	=60-	=60-	=60-
4D/	-gna	4A/	-gna	4D,/	-gna	4a,>\	-gna
*	*	*	*	*	*ij	*	*
4G/	mi-	4G/	mi-	4G/	mi-	4b\	mi-
4F/	-hi	4A/	-hi	4F/	-hi	4a\	-hi
4G/,>	ma-	4G/	ma-	4G/	ma-	4b\	ma-
=61-	=61-	=61-	=61-	=61-	=61-	=61-	=61-
4D/	-gna	4F#X/	-gna	4D/	-gna	4a,>\	-gna
*	*	*	*	*	*Xij	*	*
4G/	mi-	4G/	mi-	4G/	mi-	4b\	mi-
!	!	!	!LO:SIC:v:l:t=-hi	!	!	!	!
4F/	-hi	4A/	-h	4F/	-chi	4a\	-hi
4G,>/	ma-	4G/	ma-	4G/	ma-	4b\	ma-
=62-	=62-	=62-	=62-	=62-	=62-	=62-	=62-
4C/	-gna	4E,>/	-gna	4C/	-gna	4cc,>\	-gna
4F/	qui	4Fny/	qui	4F/	qui	4a\	qui
4E/	po-	4G/	Po-	4E/	po-	4g/	po-
4F,>/	-tens	4F/	-tens	4F/	-tens	4a\	-tens
=63-	=63-	=63-	=63-	=63-	=63-	=63-	=63-
4D/	est	4F/	eſt	4D,>/	eſt	4g,>/	eſt
*	*	*	*	*	*ij	*	*
4G/	qui	4G/	qui	4G/	qui	4b\	qui
4F/	po-	4A/	Po-	4F/	po-	4a\	po-
4G/,>	-tens	4G/	-tens	4G/	-tens	4b\	-tens
=64-	=64-	=64-	=64-	=64-	=64-	=64-	=64-
1C	est	1G	eſt	1C	eſt	1cc	eſt
*	*	*	*	*	*Xij	*	*
=65-	=65-	=65-	=65-	=65-	=65-	=65-	=65-
4r	.	2r	.	4r	.	4r	.
*custos:F	*	*	*	*	*	*	*
!LO:LB:g=original	!	!	!	!	!	!	!
4F/	et	.	.	4F/	Et	4cc\	et
4F/	ſan-	4r	.	4F/	san-	4cc\	san-
*	*	*	*	*	*	*custos:a	*
!	!	!	!	!	!	!LO:LB:g=original	!
4F,>/	-ctum	4c/	et	4F/	-ctum	4a\	-ctum
*	*	*custos:A	*	*custos:F	*	*	*
!	!	!LO:LB:g=original	!	!LO:LB:g=original	!	!	!
=66-	=66-	=66-	=66-	=66-	=66-	=66-	=66-
4r	.	4A/	San-	4r	.	4r	.
4F/	et	4A/	-ctum	4F/	et	4a\	et
4F/	ſan-	4r	.	4F/	san-	4a\	san-
4C/	-ctum	4c/	et	4C/	-ctum	4g/	-ctum
=67-	=67-	=67-	=67-	=67-	=67-	=67-	=67-
4.C/	no-	4c/	san-	4.C/	no-	2g/	no-
.	.	4G/	-ctum	.	.	.	.
8D/	.	.	.	8D/	.	.	.
4.E/	.	4r	.	4.E/	.	4.g/	-men
.	.	4c\	et	.	.	.	.
8F/	.	.	.	8F/	.	8a\	e-
=68-	=68-	=68-	=68-	=68-	=68-	=68-	=68-
2G/	.	2d\	san-	2G/	.	4b\	.
.	.	.	.	.	.	4a\	.
2G/	-men	2d\	-ctum	2G/	-men	2g/	.
=69-	=69-	=69-	=69-	=69-	=69-	=69-	=69-
*lig	*	*	*	*lig	*	*	*
1C	e-	2e\	no-	1C	e-	2g/	-ius
.	.	2e\	-men	.	.	2e/	no-
=70-	=70-	=70-	=70-	=70-	=70-	=70-	=70-
1D	.	1d	e-	1D	.	4f#X/	-men
.	.	.	.	.	.	2g/	e-
!	!	!	!	!	!	!LO:TX:a:t=P:problem=# below	!
.	.	.	.	.	.	4f#X/	.
*Xlig	*	*	*	*Xlig	*	*	*
=71-	=71-	=71-	=71-	=71-	=71-	=71-	=71-
0G;;	-ius	0d;;	-ius;	0G;>	-ius	0g;;	-ius;
=72-	=72-	=72-	=72-	=72-	=72-	=72-	=72-
.	.	.	.	.	.	.	.
=73||-	=73||-	=73||-	=73||-	=73||-	=73||-	=73||-	=73||-
2r	.	2r	.	2r	.	2r	.
2G/	Fe-	2d\	Fe-	2G/	Fe-	4b\	Fe-
.	.	.	.	.	.	4cc\	-cit
=74-	=74-	=74-	=74-	=74-	=74-	=74-	=74-
2D/	-cit	2d\	-cit	2D/	-cit	1.dd	po-
4r	.	2f\	Po-	4r	.	.	.
4d\	fe-	.	.	4d\	fe-	.	.
=75-	=75-	=75-	=75-	=75-	=75-	=75-	=75-
2B\	-cit	2d\	-ten-	2B\	-cit	.	.
2c\	Po-	2c\	-ti-	2c\	Po-	2ee\	-ten-
=76-	=76-	=76-	=76-	=76-	=76-	=76-	=76-
4c\	-ten-	2c\	-am	4c\	-te-	4ee\	.
*	*	*	*	*	*	*custos:dd	*
!	!	!	!	!	!	!LO:LB:g=original	!
4B\	.	.	.	4B\	.	4dd\	.
4A\	.	2c\	in	4A\	.	4cc\	.
4G\	.	.	.	4G\	.	4b\	.
*custos:F	*	*	*	*custos:F	*	*	*
!LO:LB:g=original	!	!	!	!LO:LB:g=original	!	!	!
=77-	=77-	=77-	=77-	=77-	=77-	=77-	=77-
4F/	.	2.f\	bra-	4F/	.	4a\	.
4G/	.	.	.	4G/	.	4b\	.
4A/	.	.	.	4A/	.	4cc\	.
4B/	.	4f\	-chi-	4B/	.	4dd\	.
=78-	=78-	=78-	=78-	=78-	=78-	=78-	=78-
2.c\	.	4e\	-o	2.c\	.	2.ee\	.
.	.	4g\	in	.	.	.	.
*	*	*custos:e	*	*	*	*	*
!	!	!LO:LB:g=original	!	!	!	!	!
.	.	4.e\	bra-	.	.	.	.
4c\	-ti-	.	.	4c\	-ti-	4ee\	-ti-
.	.	8c/	-chi-	.	.	.	.
=79-	=79-	=79-	=79-	=79-	=79-	=79-	=79-
2F/	-am	4c/	-o	2F/	-a	2ff\	-am
.	.	4c/	in	.	.	.	.
2F/	Po-	4A/	bra-	2F/	in	2ff\	in
.	.	8A/	-chi-	.	.	.	.
.	.	8A/	-o	.	.	.	.
=80-	=80-	=80-	=80-	=80-	=80-	=80-	=80-
2.A/	-ten-	4.A/	Su-	2.A/	bra-	2.ee\	bra-
.	.	8B/	-o	.	.	.	.
.	.	2c/	.	.	.	.	.
4A/	-ti-	.	.	4A/	-chi-	4ee\	-chi-
=81-	=81-	=81-	=81-	=81-	=81-	=81-	=81-
2G/	-am	0r	.	2G/	-o	2dd\	-o
2G/	in	.	.	2G/	in	2dd\	su-
=82-	=82-	=82-	=82-	=82-	=82-	=82-	=82-
4A\	bra-	.	.	4A\	bra-	2cc,\	-o
4B\	-chi-	.	.	4B\	-chi-	.	.
2c\	-o	.	.	2c\	-o	2g/	in
=83-	=83-	=83-	=83-	=83-	=83-	=83-	=83-
1G	ſu-	1r	.	1G	su-	4g/	bra-
.	.	.	.	.	.	4a\	.
.	.	.	.	.	.	2.b\	-chi-
=84-	=84-	=84-	=84-	=84-	=84-	=84-	=84-
1G	-o	2r	.	1G	-o	.	.
.	.	.	.	.	.	4b\	-o
.	.	2G/	in	.	.	4b\	in
.	.	.	.	.	.	4b\	bra-
=85-	=85-	=85-	=85-	=85-	=85-	=85-	=85-
0r	.	4A/	bra-	0r	.	4ee\	.
*	*	*	*	*	*	*custos:dd	*
!	!	!	!	!	!	!LO:LB:g=original	!
.	.	4B/	-chi-	.	.	4dd\	-chi-
.	.	2c/	-o	.	.	2cc\	-o
=86-	=86-	=86-	=86-	=86-	=86-	=86-	=86-
.	.	1G	su-	.	.	4b\	su-
.	.	.	.	.	.	2cc\	.
.	.	.	.	.	.	4b\	.
=87-	=87-	=87-	=87-	=87-	=87-	=87-	=87-
2r	.	1c	-o	2r	.	4cc,>\	-o
.	.	.	.	.	.	4ee\	dis-
2C/	dis-	.	.	2C/	diſ-	4ee\	-per-
.	.	.	.	.	.	4cc\	-sit,
=88-	=88-	=88-	=88-	=88-	=88-	=88-	=88-
2F/	-per-	4r	.	2F/	-per-	4r	.
.	.	4c\	diſ-	.	.	4cc\	dis-
4F/	-sit	4f\	-per-	4F,>/	ſit-	4a\	-per-
*	*	*	*	*	*ij	*	*
4D/	dis-	4f\	-sit	4D,>/	diſ-	4dd\	-sit,
=89-	=89-	=89-	=89-	=89-	=89-	=89-	=89-
2A/	-per-	4r	.	2A/	-per-	4r	.
*	*	*	*ij	*	*	*	*
.	.	4e\	diſ-	.	.	4ee\	dis-
4A/	-sit	4a\	-per-	4A,>/	-ſit	4cc\	-per-
4F/	dis-	4a\	-sit	4F/	diſ-	4ff\	-sit,
*	*	*	*Xij	*	*	*	*
*	*	*	*	*custos:A	*	*	*
!	!	!	!	!LO:LB:g=original	!	!	!
=90-	=90-	=90-	=90-	=90-	=90-	=90-	=90-
*	*	*	*ij	*	*	*	*
2A/	-per-	4r	.	2A/	-per-	4r	.
.	.	4A/	diſ-	.	.	4ee\	dis-
4A/	-sit	4c/	-per-	4A,>/	-ſit	4cc\	-per-
4A/	di-	4c/	-sit	4A/	diſ-	8cc\	-sit,
*	*	*	*Xij	*	*	*	*
.	.	.	.	.	.	8cc\	dis-
*custos:c	*	*custos:e	*	*	*	*	*
!LO:LB:g=original	!	!LO:LB:g=original	!	!	!	!	!
=91-	=91-	=91-	=91-	=91-	=91-	=91-	=91-
2c\	-sper-	2r	.	2c\	-per-	4ee\	-per-
.	.	.	.	.	.	4ee\	-sit,
4c\	-sit	2e\	dis-	4c,>\	-ſit	4r	.
*	*	*	*	*	*Xij	*	*
4c\	dis-	.	.	4c\	dis-	4ee\	dis-
=92-	=92-	=92-	=92-	=92-	=92-	=92-	=92-
2A/	-per-	2e\	-per-	2A/	-per-	2cc\	-per-
*	*	*	*	*	*	*custos:cc	*
!	!	!	!	!	!LO:MO:mod=-sit	!	!
!	!	!	!	!	!	!LO:LB:g=original	!
4F/	-sit	4f\	-sit	4F/	-si	4cc\	-sit
4A/	ſu-	4e\	su-	4A/	su-	4a\	su-
=93-	=93-	=93-	=93-	=93-	=93-	=93-	=93-
(>4G/	.	(>4g\	-per-	(<4G/	-per-	4b\	-per
4F/)	.	4a\)	.	4F/)	.	2cc\	.
!	!LO:SIV:v:l:s:t=-per-	!	!	!	!	!	!
2G/	-ber-	2g\	-bos	2G/	-bos	.	.
.	.	.	.	.	.	4b\	bos
=94-	=94-	=94-	=94-	=94-	=94-	=94-	=94-
1C	-bos	1e	.	1C	.	4cc\	.
.	.	.	.	.	.	2g/	men-
.	.	.	.	.	.	4g/	-te
=95-	=95-	=95-	=95-	=95-	=95-	=95-	=95-
2r	.	2r	.	2r	.	2cc\	cor-
4.F/	men-	2f\	men-	4.F/	men-	2cc\	-dis
8G/	-te	.	.	8G/	-te	.	.
=96-	=96-	=96-	=96-	=96-	=96-	=96-	=96-
4.A\	cor-	1e	-te	4.A/	cor-	4r	.
.	.	.	.	.	.	8cc\L	men-
8B\	-dis	.	.	8B/	-di	8dd\J	.
2c\	ſu-	.	.	2c\	su-	4ee\	-te
.	.	.	.	.	.	4ee\	cor-
=97-	=97-	=97-	=97-	=97-	=97-	=97-	=97-
1G	-i	2r	.	1G	-i	2dd\	-dis
.	.	2g\	men-	.	.	4r	.
.	.	.	.	.	.	4d/	cor-
=98-	=98-	=98-	=98-	=98-	=98-	=98-	=98-
2r	.	2e\	-te	2r	.	4e/	.
.	.	.	.	.	.	4fny/	-dis
2C/	cor-	2e\	cor-	2C/	cor-	1g\	su-
=99-	=99-	=99-	=99-	=99-	=99-	=99-	=99-
2D/	-dis	2d\	-dis	2D/	-di	.	.
2D/	ſu-	2d\	su-	2D/	su-	2f#X/	.
=100-	=100-	=100-	=100-	=100-	=100-	=100-	=100-
0G;;	-i	0d;;	-i;	0G;>	-i	0g;;	-i;
*	*	*	*	*	*	*custos:g	*
!	!	!	!	!LO:PB:g=original	!	!LO:LB:g=original	!
=101||-	=101||-	=101||-	=101||-	=101||-	=101||-	=101||-	=101||-
1r	.	0r	.	1r	.	0r	.
=102-	=102-	=102-	=102-	=102-	=102-	=102-	=102-
1ryy	.	.	.	1ryy	.	.	.
=103-	=103-	=103-	=103-	=103-	=103-	=103-	=103-
4.c\	E-	2r	.	4.c\	E-	2g/	E-
8B\	.	.	.	8B\	-su-	.	.
4A\	-ſu-	2c/	E-	4A\	-ri-	4e/	-su-
4A\	-ri-	.	.	4A\	-en-	4e/	-ri-
*custos:F	*	*	*	*	*	*	*
!LO:PB:g=original	!	!	!	!	!	!	!
=104-	=104-	=104-	=104-	=104-	=104-	=104-	=104-
8F/L	-en-	4A/	-su-	8F/L	-tes	2a\	-en-
8G/	.	.	.	8G/	.	.	.
8A/	.	4A/	-ri-	8A/	.	.	.
8B/J	.	.	.	8B/J	.	.	.
4c\	-tes	8F/L	-en-	4c\	.	4g/	-tes
.	.	8G/	.	.	.	.	.
4C/	e-	8A/	.	4C/	e-	4e/	e-
.	.	8B/J	.	.	.	.	.
*	*	*custos:c	*	*	*	*	*
!	!	!LO:LB:g=original	!	!	!	!	!
=105-	=105-	=105-	=105-	=105-	=105-	=105-	=105-
4F/	ſu-	4c/	-tes	4F/	-su-	4a\	-su-
4F/	-ri-	4c/	im-	4F/	-ri-	4a\	-ri-
2F/	-en-	4G/	-ple-	2F/	-en-	2a\	-en-
.	.	4c/	-uit	.	.	.	.
=106-	=106-	=106-	=106-	=106-	=106-	=106-	=106-
2C/	-tes	4r	.	2C/	-tes	2g/	-tes,
.	.	4c/	im-	.	.	.	.
4r	.	4G/	-ple-	4r	.	4r	.
4c\	im-	4c/	-uit	4c\	im-	4cc\	im-
=107-	=107-	=107-	=107-	=107-	=107-	=107-	=107-
4G/	-ple-	4G/	bo-	4G/	-ple-	4b\	-ple-
4c\	-uit	4c/	-nis	4c\	-uit	4cc\	-uit,
4r	.	4r	.	4r	.	4r	.
*	*	*	*ij	*	*	*	*
4C/	im-	4c/	im-	4C/	im-	4cc\	im-
=108-	=108-	=108-	=108-	=108-	=108-	=108-	=108-
4G/	-ple-	4G/	-ple-	4G/	-ple-	4b\	-ple-
4C/	-uit	4A/	-uit	4C/	-uit	4cc\	-uit
4G/	bo-	4G/	bo-	4G/	bo-	4dd\	bo-
4C/	-nis	8c/	-nis	4C/	-nis	4cc\	-nis,
*	*	*	*Xij	*	*	*	*
*	*	*	*ij	*	*	*	*
.	.	8c/	im-	.	.	.	.
=109-	=109-	=109-	=109-	=109-	=109-	=109-	=109-
4r	.	4B/	-ple-	4r	.	4r	.
*	*	*	*	*	*ij	*	*
4c\	im-	4c/	-uit	4c\	im-	4cc\	im-
4G/	-ple-	4G/	bo-	4G/	-ple-	4b\	-ple-
4C/	-uit	4c/	-nis	4C/	-uit	4cc\	-uit
*	*	*	*Xij	*	*	*	*
=110-	=110-	=110-	=110-	=110-	=110-	=110-	=110-
!	!	!	!	!	!	!	!LO:MO:P=custos słowny nis
4G/	bo-	4r	.	4E/	bo-	4dd\	bo-
*	*	*	*	*custos:C	*	*custos:cc	*
!	!	!	!LO:MO:mod=im-	!LO:LB:g=original	!	!LO:PB:g=original	!
8C/	-nis	4e\	in-	8C/	-nis	4cc\	-nis,
8c\	im-	.	.	8c\	im-	.	.
4B\	-ple-	4g\	-ple-	4B\	-ple-	4r	.
4c\	-uit	8e\	-uit	4c\	-uit	4ee\	im-
!	!	!	!LO:MO:mod=im-	!	!	!	!
.	.	8e\	in-	.	.	.	.
=111-	=111-	=111-	=111-	=111-	=111-	=111-	=111-
4G/	bo-	4g\	-ple-	4G/	bo-	4dd\	-ple-
4C/	-nis	4a\	-uit	4C/	-nis	4cc\	-uit
*	*	*	*	*	*Xij	*	*
4r	.	4.g\	bo-	4r	.	4b\	bo-
*	*	*	*	*	*ij	*	*
*custos:D	*	*	*	*	*	*	*
!LO:TX:t=P:problem=błędny kustosz	!	!	!	!	!	!	!
!LO:LB:g=original	!	!	!	!	!	!	!
4C/	im-	.	.	4C/	im-	8cc\	-nis
.	.	8f\	.	.	.	8cc\	im-
*	*	*custos:e	*	*	*	*	*
!	!	!LO:LB:g=original	!	!	!	!	!
=112-	=112-	=112-	=112-	=112-	=112-	=112-	=112-
4G/	-ple-	1e	-ni	4G/	-ple-	4b\	-ple-
4F/	-uit	.	.	4F/	-uit	2cc\	-uit
2G/	bo-	.	.	2G/	bo-	.	.
.	.	.	.	.	.	4b\	bo-
=113-	=113-	=113-	=113-	=113-	=113-	=113-	=113-
1C	-nis	2r	.	1C	-nis	1cc	-nis,
*	*	*	*	*	*Xij	*	*
.	.	2c/	et	.	.	.	.
=114-	=114-	=114-	=114-	=114-	=114-	=114-	=114-
2r	.	4.A/	di-	2r	.	1r	.
.	.	8F/	-ui-	.	.	.	.
2C/	et	4c\	-te	2C/	et	.	.
.	.	4c\	et	.	.	.	.
=115-	=115-	=115-	=115-	=115-	=115-	=115-	=115-
4.F/	di-	4.f\	di-	4.F/	di-	4a\	et
.	.	.	.	.	.	4.cc\	di-
8F/	-ui-	8f\	-ui-	8F/	-ui-	.	.
4F/	-tes	2e\	-tes	4F/	-tes	.	.
.	.	.	.	.	.	8cc\	-ui-
4A/	et	.	.	4A/	et	8cc\	-tes
.	.	.	.	.	.	8cc\	et
=116-	=116-	=116-	=116-	=116-	=116-	=116-	=116-
4.F/	di-	1r	.	4.F/	di-	4.a\	di-
8F/	-ui-	.	.	8F/	-ui-	8a\	-ui-
2C/	-tes	.	.	2C/	-tes	2g/	-tes
=117-	=117-	=117-	=117-	=117-	=117-	=117-	=117-
*	*	*	*ij	*	*	*	*
!	!	!	!	!LO:TX:a:t=P:problem=tego taktu tu nie powinno być	!	!	!
1r	.	2e\	et	1r	.	1r	.
.	.	4.c/	di-	.	.	.	.
.	.	8c/	-vi-	.	.	.	.
=118-	=118-	=118-	=118-	=118-	=118-	=118-	=118-
*	*	*	*	*	*ij	*	*
2C/	et	2F/	-tes	2D/	et	2g/	et
*	*	*	*Xij	*	*	*	*
*	*	*	*	*	*	*custos:a	*
!	!	!	!	!	!	!LO:LB:g=original	!
4.F/	di-	2r	.	4.F/	di-	4.a\	di-
8F/	-ui-	.	.	8F/	-ui-	8a\	-ui-
=119-	=119-	=119-	=119-	=119-	=119-	=119-	=119-
2F/	-tes	1r	.	2F/	-tes	2cc\	-tes
2r	.	.	.	1r	.	2r	.
*	*	*	*	*custos:G	*	*	*
!	!	!	!	!LO:LB:g=original	!	!	!
=120-	=120-	=120-	=120-	=120-	=120-	=120-	=120-
2r	.	2r	.	.	.	2r	.
*	*	*	*ij	*	*	*	*
2G/	et	2d\	et	2G/	et	2b\	et
=121-	=121-	=121-	=121-	=121-	=121-	=121-	=121-
4.c\	di-	4.e\	di-	4.c\	di-	4.g/	di-
8c\	-ui-	8e\	-vi-	8c\	-vi-	8g/	-ui-
4c\	-ter	4e\	-tes	4c\	-tes	4g/	-tes
*	*	*	*Xij	*	*	*	*
*	*	*	*ij	*	*	*	*
4C/	et	4e\	et	4C/	et	4cc\	et
=122-	=122-	=122-	=122-	=122-	=122-	=122-	=122-
4.F/	di-	4.c\	di-	4.F/	di-	4.a\	di-
8F/	-ui-	8c\	-vi-	8F/	-vi-	8a\	-ui-
4F/	-tes	4c\	-tes	4F/	-tes	4a\	-tes
*	*	*	*Xij	*	*	*	*
*custos:D	*	*	*	*	*	*	*
!LO:LB:g=original	!	!	!	!	!	!	!
4D/	et	4d\	et	4D/	et	4dd\	et
=123-	=123-	=123-	=123-	=123-	=123-	=123-	=123-
4.G/	di-	4.d\	di-	4.G/	di-	4.b\	di-
8G/	-ui-	8d\	-vi-	8G/	-vi-	8b\	-ui-
*	*	*custos:e	*	*	*	*	*
!	!	!LO:PB:g=original	!	!	!	!	!
2C/	-tes	2e\	-tes	2C/	-tes	2cc\	-tes;
*	*	*	*	*	*Xij	*	*
=124-	=124-	=124-	=124-	=124-	=124-	=124-	=124-
1r;;	.	1r;;	.	1r;;	.	1r;;	.
=125-||	=125-||	=125-||	=125-||	=125-||	=125-||	=125-||	=125-||
4G/	Si-	1r	.	4G/	Si-	1r	.
8F/L	.	.	.	8F/L	-cut	.	.
8E/	.	.	.	8E/	.	.	.
8D/	.	.	.	8D/	.	.	.
8E/J	.	.	.	8E/J	.	.	.
4F/	.	.	.	4F/	.	.	.
=126-	=126-	=126-	=126-	=126-	=126-	=126-	=126-
2C/	-cut	4g\	Si-	2C/	.	2g/	Si-
.	.	8f\L	.	.	.	.	.
.	.	8e\	.	.	.	.	.
2r	.	8d\	.	2r	.	2a\	-cut
.	.	8e\J	.	.	.	.	.
.	.	4f\	.	.	.	.	.
=127-	=127-	=127-	=127-	=127-	=127-	=127-	=127-
4r	.	2c/	-cut	4r	.	2g/	lo-
4c\	ſi-	.	.	4c\	ſi-	.	.
4A/	-cut	2r	.	4A/	-cut	4cc\	-cu-
4F/	lo-	.	.	4F/	lo-	4cc\	-tus
*	*	*	*	*	*	*custos:cc	*
!	!	!	!	!	!	!LO:LB:g=original	!
=128-	=128-	=128-	=128-	=128-	=128-	=128-	=128-
4c\	-cu-	4r	.	4c\	-cu-	4cc\	eſt
4c\	-tus	4c/	Si-	4c\	-tus	4g/	lo-
*	*	*	*	*custos:F	*	*	*
!	!	!	!	!LO:LB:g=original	!	!	!
2F/	est	4A/	-cut	2F/	eſt	4a\	-cu-
.	.	4F/	lo-	.	.	4a\	-tus
=129-	=129-	=129-	=129-	=129-	=129-	=129-	=129-
4r	.	4c/	-cu-	4r	.	4g,>/	eſt
*	*	*	*	*	*ij	*	*
4C/	si-	4c/	-tus	4C/	si-	4e/	si-
4F/	-cut	2c/	eſt	4F/	-cut	4fny/	-cut
4E/	lo-	.	.	4E/	lo-	4g/	lo-
=130-	=130-	=130-	=130-	=130-	=130-	=130-	=130-
4F/	-cu-	4r	.	4F/	-cu-	4a\	-cu-
4F/	-tus	4c\	lo-	4F/	-tus	4a\	-tus
2C/	est	2e\	-cu-	2C/	est	2g/	eſt
*	*	*	*	*	*Xij	*	*
=131-	=131-	=131-	=131-	=131-	=131-	=131-	=131-
4r	.	2e\	-tus	4r	.	4r	.
4C/	ad	.	.	4C/	ad	4cc\	ad
2G/	Pat-	2d\	eſt	2G/	pat-	2dd\	pat-
=132-	=132-	=132-	=132-	=132-	=132-	=132-	=132-
4E/	-res	2r	.	4E/	-res	4ee\	-res
*custos:A	*	*	*	*	*	*	*
!LO:LB:g=original	!	!	!	!	!	!	!
4A/	ad	.	.	4A/	ad	4cc\	ad
2G/	Pa-	2g\	ad	2G/	pat-	2b\	pat-
*	*	*custos:g	*	*	*	*	*
!	!	!LO:LB:g=original	!	!	!	!	!
=133-	=133-	=133-	=133-	=133-	=133-	=133-	=133-
4C/	-tres	4g\	Pa-	4C/	-tres	4cc\	-res
8E/L	.	4e\	-tres	8E/L	.	8g/L	no-
8F/J	.	.	.	8F/J	.	8a/J	.
2G/	no-	2d\	no-	2G/	no-	2b\	.
=134-	=134-	=134-	=134-	=134-	=134-	=134-	=134-
2C/	-ſtros	2e\	-ſtros	2C/	-ſtros	2cc,>\	-ſtros
4.F/	A-	4.f\	a-	4.F/	A-	4.a\	a-
8F/	-bra-	8f\	-bra-	8F/	-bra-	8a\	-bra-
*	*	*	*	*	*	*custos:cc	*
!	!	!	!	!	!	!LO:LB:g=original	!
=135-	=135-	=135-	=135-	=135-	=135-	=135-	=135-
2F/	-ham	2c/	-ham	2F/	-ham	2cc\	-ham
*	*	*	*	*	*ij	*	*ij
4.A/	A-	4.e\	a-	4.A/	A-	4.a\	a-
8A/	-bra-	8e\	-bra-	8A/	-bra-	8a\	-bra-
=136-	=136-	=136-	=136-	=136-	=136-	=136-	=136-
2G/	-ham	1g	-ham	2G/	-ham	2b,>\	-ham
*	*	*	*	*	*	*	*Xij
*	*	*	*	*custos:c	*	*	*
!	!	!	!	!LO:LB:g=original	!	!	!
4.c\	A-	.	.	4.c\	A-	4.ee\	a-
8c\	-bra-	.	.	8c\	-bra-	8ee\	-bra-
=137-	=137-	=137-	=137-	=137-	=137-	=137-	=137-
2c\	-ham	2r	.	2c\	-ham	4ee\	-ham
*	*	*	*	*	*	*	*ij
.	.	.	.	.	.	2cc\	a-
4.A/	A-	4.c/	A-	4.A/	A-	.	.
.	.	.	.	.	.	4a\	-bra-
8F/	-bra-	8c/	-bra-	8F/	-bra-	.	.
=138-	=138-	=138-	=138-	=138-	=138-	=138-	=138-
2c\	-ham	2e\	-ham	2c\	-ham	2g/	-ham
*	*	*	*	*	*Xij	*	*Xij
2C/	et	2e\	et	2C/	et	4r	.
.	.	.	.	.	.	4cc\	et
=139-	=139-	=139-	=139-	=139-	=139-	=139-	=139-
!	!	!	!LO:MO:mod=Se-	!	!	!	!
4.C/	se-	4.g\	S-	4.C/	se-	4.ee\	se-
8C/	-mi-	8g\	-mi-	8C/	-mi-	8ee\	-mi-
4C/	-ni	4g\	-ni	4C/	-ni	4ee\	-ni
4C/	e-	4g\	e-	4C/	e-	4ee\	e-
=140-	=140-	=140-	=140-	=140-	=140-	=140-	=140-
2G/	-ius	2g\	-ius	2G/	-ius	2dd\	-ius
2C/	in	2e\	in	2C/	in	2ee\	in
*custos:D	*	*	*	*	*	*	*
!LO:LB:g=original	!	!	!	!	!	!	!
=141-	=141-	=141-	=141-	=141-	=141-	=141-	=141-
2.D/	sae-	4f#X\	Se-	2.D/	Se-	2.dd\	se-
*	*	*custos:g	*	*	*	*	*
!	!	!LO:LB:g=original	!	!	!	!	!
.	.	2g\	.	.	.	.	.
.	.	.	.	.	.	.	.
4D/	-cu-	4f#X\	-cu-	4D/	-cu-	4a\	-cu-
=142-	=142-	=142-	=142-	=142-	=142-	=142-	=142-
0G;;	-la	0g;<	-la;	0G;>	-la;	0b;;	-la;
=143||-	=143||-	=143||-	=143||-	=143||-	=143||-	=143||-	=143||-
2G/	Si-	2.g\	Si-	2G/	Si-	2.dd\	Si-
2D/	-cut	.	.	2D/	-cut	.	.
.	.	4fny\	-cut	.	.	4a\	-cut
=144-	=144-	=144-	=144-	=144-	=144-	=144-	=144-
4E/	e-	4e\	e-	4E/	e-	4b\	e-
4C/	-rat	4e\	-rat	4C/	-rat	4g/	-rat
4F/	in	4c\	in	4F/	in	4a\	in
4E/	prin-	4c\	prin-	4E/	prin-	4g/	prin-
=145-	=145-	=145-	=145-	=145-	=145-	=145-	=145-
4.A/	-ci-	4e\	-ci-	4.A/	-ci-	4.a\	-ci-
.	.	4e\	-pi-	.	.	.	.
8A/	-pi-	.	.	8A/	-pi-	8a\	-pi-
*	*	*	*	*custos:A	*	*	*
!	!	!	!	!LO:LB:g=original	!	!	!
4A/	-o	2e\	-o	4A/	-o	4a,>\	-o
4G/	et	.	.	4G/	et	4b\	et
=146-	=146-	=146-	=146-	=146-	=146-	=146-	=146-
4A/	nunc	2r	.	4A/	nunc	4ee\	nunc
4c\	et	.	.	4c\	et	4ee\	et
4.G/	sem-	2d\	et	4.G/	ſem-	2dd\	sem-
!LO:TX:t=P:problem=cross-measure beam	!	!	!	!LO:TX:t=P:problem=cross-measure beam	!	!	!
8F/L	.	.	.	8F/L	.	.	.
=147-	=147-	=147-	=147-	=147-	=147-	=147-	=147-
8E/	.	4e\	nunc	8E/	.	4cc,>\	-per
8D/J	.	.	.	8D/J	.	.	.
4C/	.	4e\	et	4C/	.	4cc\	et
2G/	.	2d\	sem-	2G/	.	(>4cc\	sem-
.	.	.	.	.	.	4b\)	.
=148-	=148-	=148-	=148-	=148-	=148-	=148-	=148-
4C/	-per	4e\	-per	4C/	-per	4cc\	-per
2F/	et	2c/	et	2F/	et	2a\	et
4F/	in	4c/	in	4F/	in	4a\	in
=149-	=149-	=149-	=149-	=149-	=149-	=149-	=149-
4.F/	sae-	4.f\	se-	4.F/	se-	4.cc\	se-
8F/	-cu-	8f\	-cu-	8F/	-cu-	8cc\	-cu-
*	*	*custos:e	*	*	*	*	*
!	!	!LO:LB:g=original	!	!	!	!	!
4C/	-la	2e\	-la	4C/	-la	4cc\	-la
*custos:c	*	*	*	*	*	*custos:ee	*
!LO:LB:g=original	!	!	!	!	!	!LO:LB:g=original	!
2c\	et	.	.	2c\	et	2ee\	et
=150-	=150-	=150-	=150-	=150-	=150-	=150-	=150-
.	.	4c/	et	.	.	.	.
4A/	in	4c/	in	4A/	in	4ee\	in
4.F/	sae-	4.A/	se-	4.F/	se-	4.ff\	se-
8F/	-cu-	8A/	-cu-	8F/	-cu-	8ff\	-cu-
=151-	=151-	=151-	=151-	=151-	=151-	=151-	=151-
4c\	-la	4c\	-la	4c\	-la	4ee,>\	-la
*	*	*	*ij	*	*ij	*	*
2C/	et	2e\	et	2C/	et	2cc\	et
4C/	in	4e\	in	4C/	in	4cc\	in
=152-	=152-	=152-	=152-	=152-	=152-	=152-	=152-
4.F/	sae-	4.f\	se-	4.F/	se-	4.a\	se-
8F/	-cu-	8f\	-cu-	8F/	-cu-	8a\	-cu-
2C/	-la	2e\	-la	2C/	-la	2g,>/	-la
*	*	*	*Xij	*	*Xij	*	*
=153-	=153-	=153-	=153-	=153-	=153-	=153-	=153-
4.F/	sae-	1r	.	4.F/	se-	4.a\	se-
8F/	-cu-	.	.	8F/	-cu-	8a\	-cu-
*	*	*	*	*custos:G	*	*	*
!	!	!	!	!LO:PB:g=original	!	!	!
4G/	-lo-	.	.	4G/	-lo-	4g/	-lo-
4E/	-rum	.	.	4E/	-rum	4g/	-rum
=154-	=154-	=154-	=154-	=154-	=154-	=154-	=154-
2D/	a-	2r	.	2D/	a-	2dd\	a-
2G/	-men	4.G/	Se-	2G/	-men	4dd,>\	-men,
.	.	.	.	.	.	8b\	se-
.	.	8A/	-cu-	.	.	8cc\	-cu-
=155-	=155-	=155-	=155-	=155-	=155-	=155-	=155-
2r	.	4B/	-lo-	2r	.	4dd\	-lo-
.	.	4c/	-rum	.	.	4ee\	-rum
*	*	*	*	*	*ij	*	*
4.G/	sae-	2.G/	A-	4.G/	et	2.dd\	a-
8A\	-cu-	.	.	8A\	in	.	.
=156-	=156-	=156-	=156-	=156-	=156-	=156-	=156-
4B\	-lo-	.	.	4B\	se-	.	.
!	!	!	!	!	!	!	!LO:MO:P=custos słowny se
4c\	-rum	4c/	-men	4c\	-cu-	4cc\	-men
*	*	*	*ij	*	*	*	*
*	*	*	*	*	*	*custos:b	*
!	!	!	!	!	!	!LO:PB:g=original	!
2.G/	a-	4.G/	Se-	2.G/	-la	4.b\	se-
.	.	8A/	-cu-	.	.	8cc\	-cu-
*	*	*	*	*	*Xij	*	*
=157-	=157-	=157-	=157-	=157-	=157-	=157-	=157-
*	*	*	*	*	*ij	*	*
.	.	4B/	-lo-	.	.	4dd\	-lo-
4C/	-men	4c/	-rum	4C/	se-	4ee\	-rum
4.G/	sae-	2.G/	A-	4.G/	-cu-	2.dd\	a-
8A\	-cu-	.	.	8A\	.	.	.
=158-	=158-	=158-	=158-	=158-	=158-	=158-	=158-
4B\	-lo-	.	.	4B\	-lo-	.	.
4c\	-rum	4c/	-men	4c\	-rum	4ee\	-men,
*	*	*	*Xij	*	*	*	*
*	*	*	*ij	*	*	*	*
*	*	*custos:G	*	*	*	*	*
!	!	!LO:LB:g=original	!	!	!	!	!
2.G/	a-	4.G/	Se-	2.G/	a-	4r	.
.	.	.	.	.	.	8b\	se-
.	.	8A/	-cu-	.	.	8cc\	-cu-
=159-	=159-	=159-	=159-	=159-	=159-	=159-	=159-
.	.	4B/	-lo-	.	.	4dd\	-lo-
4C/	-men	4c/	-rum	4C/	-men	4ee\	-rum
2r	.	2G/	A-	2r	.	2dd\	a-
*	*	*	*	*	*Xij	*	*
*custos:C	*	*	*	*	*	*	*
!LO:PB:g=original	!	!	!	!	!	!	!
=160-	=160-	=160-	=160-	=160-	=160-	=160-	=160-
*	*	*	*	*	*ij	*	*
4.C/	sae-	1c	-men	4.C/	et	4ee\	-men,
.	.	.	.	.	.	2cc\	se-
8D/	-cu-	.	.	8D/	in	.	.
4.E/	-lo-	.	.	4.E/	se-	.	.
.	.	.	.	.	.	4a\	-cu-
8F/	-rum	.	.	8F/	-cu-	.	.
*	*	*	*Xij	*	*	*	*
=161-	=161-	=161-	=161-	=161-	=161-	=161-	=161-
*	*	*	*ij	*	*	*	*
2G/	a-	4.G/	Se-	2G/	-la	2b\	-lo-
.	.	8A/	-cu-	.	.	.	.
2G/	-men	4B/	-lo-	2G/	se-	4b\	-rum
.	.	4G/	-rum	.	.	8dd\	se-
.	.	.	.	.	.	8dd\	-cu-
*	*	*	*	*	*Xij	*	*
=162-	=162-	=162-	=162-	=162-	=162-	=162-	=162-
*	*	*	*	*	*ij	*	*
4.C/	sae-	4c/	A-	4.C/	-cu-	2.ee\	-lo-
.	.	4c/	-men	.	.	.	.
8D/	-cu-	.	.	8D/	-lo-	.	.
*	*	*	*	*custos:E	*	*	*
!	!	!	!	!LO:LB:g=original	!	!	!
4E/	-lo-	2r	.	4.E/	-rum	.	.
4G/	-rum	.	.	.	.	4dd\	-rum
.	.	.	.	8G/	.	.	.
*	*	*	*Xij	*	*	*	*
=163-	=163-	=163-	=163-	=163-	=163-	=163-	=163-
*	*	*	*ij	*	*	*	*
2C/	a-	4.d\	Se-	2C/	a-	2ee\	a-
.	.	8d\	-cu-	.	.	.	.
*	*	*	*	*	*	*custos:ee	*
!	!	!	!	!	!	!LO:LB:g=original	!
2C/	-men	4e\	-lo-	2C/	-men	2ee,>\	-men
.	.	4a\	-rum	.	.	.	.
*	*	*	*	*	*Xij	*	*
=164-	=164-	=164-	=164-	=164-	=164-	=164-	=164-
4.C/	sae-	2.c/	A-	4.C/	se-	4.cc\	se-
8D/	-cu-	.	.	8D/	-cu-	8cc\	-cu-
4E/	-lo-	.	.	4E/	-lo-	4cc\	-lo-
4G/	-rum	4B/	-men	4G/	-rum	4dd,>\	-rum
*	*	*	*Xij	*	*	*	*
=165-	=165-	=165-	=165-	=165-	=165-	=165-	=165-
*	*	*	*ij	*	*	*	*
0C	a-	4.c\	Se-	0C	A-	4.ee\	se-
.	.	8d\	-cu-	.	.	8ee\	-cu-
.	.	4e\	-lo-	.	.	4ee\	-lo-
.	.	4g\	-rum	.	.	4dd\	-rum
=166-	=166-	=166-	=166-	=166-	=166-	=166-	=166-
.	.	1c	A-	.	.	4.cc\	a-
.	.	.	.	.	.	8dd\	.
.	.	.	.	.	.	2ee\	.
=167-	=167-	=167-	=167-	=167-	=167-	=167-	=167-
0G;;	-men	0G;;	-men	0G;;	-men	0dd;<	-men;
*	*	*	*Xij	*	*	*	*
=-	=-	=-	=-	=-	=-	=-	=-
*-	*-	*-	*-	*-	*-	*-	*-
!!!system-decoration: [(g1)][(g2)]
!!!RDF**kern: > = above
!!!RDF**kern: < = below
!!!ENC: Andrzej Gręziak
!!!END: 2021-10-27
!!!EED: Jędrzej Mróz
!!!ESR: 2021-11-03
!!!YEC: Copyright 2022 Narodowy Instytut Fryderyka Chopina (https://polishscores.org)
!!!YEM: License CC-BY-4.0 (https://creativecommons.org/licenses/by/4.0)
